X: 2
T: Hop Jig or Country Dance
M: 9/8
L: 1/8
R: hop/slip jig
K: GMaj
|: G2 B BGB dBG | ecA ABG FED | G2 B BGB dBd |[1 ece fdf gdB :|[2 ece fdf g2 g ||
|: bag a2 f g2 f | gfg e2 g fdB | ece fdf gfe |[1 dgf e2 d efg :|[2 dgf edc BcA |]
